svgs/duotone/robot.svg

<svg xmlns="http://www.w3.org/2000/svg" viewBox="0 0 640 512"><!-- Font Awesome Pro 6.0.0-alpha2 by @fontawesome - https://fontawesome.com License - https://fontawesome.com/license (Commercial License) --><defs><style>.fa-secondary{opacity:.4}</style></defs><path d="M41.375 233.375C35.375 239.375 32 247.5 32 256V384C32 392.5 35.375 400.625 41.375 406.625S55.5 416 64 416H96V224H64C55.5 224 47.375 227.375 41.375 233.375ZM598.625 233.375C592.625 227.375 584.5 224 576 224H544V416H576C584.5 416 592.625 412.625 598.625 406.625S608 392.5 608 384V256C608 247.5 604.625 239.375 598.625 233.375ZM320 0C302.375 0 288 14.375 288 32V96H352V32C352 14.375 337.625 0 320 0ZM192 416H256V384H192V416ZM288 416H352V384H288V416ZM384 416H448V384H384V416Z" class="fa-secondary"/><path d="M464 96H176C131.75 96 96 131.75 96 176V448C96 483.375 124.625 512 160 512H480C515.375 512 544 483.375 544 448V176C544 131.75 508.25 96 464 96ZM256 416H192V384H256V416ZM224 296C201.875 296 184 278.125 184 256S201.875 216 224 216S264 233.875 264 256S246.125 296 224 296ZM352 416H288V384H352V416ZM448 416H384V384H448V416ZM416 296C393.875 296 376 278.125 376 256S393.875 216 416 216S456 233.875 456 256S438.125 296 416 296Z" class="fa-primary"/></svg>

<svg xmlns="http://www.w3.org/2000/svg" viewBox="0 0 640 512"><!--! Font Awesome Pro 6.3.0 by @fontawesome - https://fontawesome.com License - https://fontawesome.com/license (Commercial License) Copyright 2023 Fonticons, Inc. --><defs><style>.fa-secondary{opacity:.4}</style></defs><path class="fa-primary" d="M464 96h-288C131.8 96 96 131.8 96 176V448c0 35.38 28.62 64 64 64h320c35.38 0 64-28.62 64-64V176C544 131.8 508.3 96 464 96zM256 416H192v-32h64V416zM224 296C201.9 296 184 278.1 184 256S201.9 216 224 216S264 233.9 264 256S246.1 296 224 296zM352 416H288v-32h64V416zM448 416h-64v-32h64V416zM416 296c-22.12 0-40-17.88-40-40S393.9 216 416 216S456 233.9 456 256S438.1 296 416 296z"/><path class="fa-secondary" d="M41.38 233.4C35.38 239.4 32 247.5 32 256v128c0 8.5 3.375 16.62 9.375 22.62S55.5 416 64 416h32V224H64C55.5 224 47.38 227.4 41.38 233.4zM598.6 233.4C592.6 227.4 584.5 224 576 224h-32v192h32c8.5 0 16.62-3.375 22.62-9.375S608 392.5 608 384V256C608 247.5 604.6 239.4 598.6 233.4zM320 0C302.4 0 288 14.38 288 32v64h64V32C352 14.38 337.6 0 320 0zM192 416h64v-32H192V416zM288 416h64v-32H288V416zM384 416h64v-32h-64V416z"/></svg>
